X:1
T:Under the Greenwood Tree
T:Under the Greenwood Tree
T:W. S. Fenollosa (1881)
C:W. S. Fenollosa (1881)
%%score [ 1 2 ( 3 4 ) ( 5 6 ) ]
L:1/8
Q:1/4=105
M:6/8
K:F
V:1 treble nm="Soprano" snm="S"
V:2 treble nm="Alto" snm="A"
V:3 treble-8 nm="Tenor" snm="T"
V:4 treble-8 
V:5 bass nm="Bass" snm="B"
V:6 bass 
V:1
"^Words from Shakespeare""^Vivace."!mp! F>FF F2 G | B2 A d2 c |!<(! c2 f!<)!!>(! (f>e)d!>)! | %3
w: 1.Un- der the green- wood|tree who loves, who|loves to lie * with|
 c2 F !>!e2 d | c3-"^(his  mer-)" c2 B | A2 A"^cresc" (A^G)A | (=B3 c2) B | A2 (=B (c)B)c | %8
w: me, and tune his|mer- * ry|note un- to * the|sweet * bird's|throat un- to * the|
!sfz!!>(! e3-!>)! e2 d | c2 z z2 z | z2!p! d (=B>A)B | c2"^cresc" G GAB | A2 f d2 d | c2 z!f! cde | %14
w: sweet * bird's|throat,|Come hith- * er|come, come hith- er, come|hith- er, hith- er,|come. Here shall he|
 f2 c (cd)_e | d3 z2 z | z2 d ^c2 c | d2 z z2 z | z2!f! f (fe)d | c2 c (c3- |!>(! c3 B3)!>)! | %21
w: see no en- * e-|my,|no en- e-|my|but win- * ter|and rough wea-||
 A2!mf! c (c=B)c | c6- | c2 A (A^G)A |"^dim" A6- | A2 F (FE)F |!mp! f6- |"^cresc" f6- | f6- | f6- | %30
w: ther; here shall * he|see|* no en- * e-|my;|* come hith- * er|come||||
!f! f6 | (ef)e (d3- |!>(! d)ed (_d_e)d!>)! | c3"^calando"!p! A3 | B3 G3 | %35
w: |hith- * er hith-|* * er hith- * er|come, come|hith- er;|
!mp! F>"^a  tempo"FF F2 G | B2 A d2 c | c2 f (f>e)d | c2 F !>!e2 d | c3- c2 B | %40
w: Un- der the green- wood|tree who loves, who|loves to lie * with|me, and tune his|mer- * ry|
 A2 (A (A)"^cresc"G)A |"^39" B2 (B (=B)A)B | c2 (c (^c)=B)c | d2 d!sfz! g3- | g3!mp! (B>c)_d | %45
w: note, and tune * his|mer- ry note * un-|to the sweet * bird's|throat, Oh come|* hith- * er|
 c3 (B>c)_d |"^44" c3 (B>c)_d | c2 z!f! c3 | c2 d B2 A | A2 F!ff! (FA)c | f2 A (Ac)f | a6- | %52
w: come, hith- * er|come, hith- * er|come; Who|loves to lie with|me, come hith- * er|come, come hith- * er|come,|
"^49" a3"^rit" g3 | !fermata!f6 :| %54
w: * Oh|come!|
V:2
!mp! F>FF F2 F | F2 A G2 E |!<(! F>GA!<)!!>(! B-BF!>)! | F2 F F3-"^(the" |"^food)" F2 F G2 G | %5
w: 2.Who doth am- bi- tion|shun, and loves, and|loves * to live i' the|sun, and seek|* the food he|
 F3-"^(well   pleased  with     what)" F2"^cresc""^(un   -    to       the   sweet)" A | %6
w: eats, * well|
 A2 A ^G2 G | E2 E E2 A |!>(! (G3!>)! A2) =B | c2!p! .G .G.A.B | (A>G)F F2 F | E2"^cresc" E EFG | %12
w: pleased with what he|gets, well pleased with|what * he|gets, Come hith- er come|hith- * er, hith- er|come, come hith- er, come|
 (F>G)A F2 F | E2 z!f! EFG | F2 F G2 c | A3 ^FGA | B2 B (BA)G"^sempre" | F2!f! F (FG)A | B3- B2 B | %19
w: hith- * er, hith- er,|come. Here shall he|see no en- e-|my, here shall he|see no en- * e-|my, no en- * e-|my * but|
 A2 C (CE)A |!>(! ^G6!>)! | A2 z z2 z | z2!mf! G (GA)B | A2 z z2 z | z2"^dim" E (EF)G | F2 z z2 z | %26
w: win- ter and * rough|wea-|ther;|here shall * he|see|no en- * e-|my.|
 z2 z!mp! G3 |"^cresc" A3 G3 | A3 G3 | A3 G3 |!f! d6 | c3 _A3 |!>(! G3 (FG)F!>)! | %33
w: Who|loves to|lie with|me come|hith-|er, Oh|come hith- * er|
 E3!p! _E3"^calando" | D3 E3 |!mp! F>"^a  tempo"FF F2 F | F2 A G2 E | (F>G)A B2 F | F2 F F3- | %39
w: come, come|hith- er;|Un- der the green- wood|tree who loves, who|loves * to lie with|me, and tune|
 F2 F G2 G | F2 F F2"^cresc" F | F2 _A G2 G | G2 B A2 A |!f! (A>=B)A (G>A)B |"^dim" B6 | %45
w: * his mer- ry|note, and tune his|mer- ry note un-|to the sweet bird's|throat, * come hith- * er|come,|
!mp! (E>F)G F3 | (E>F)G (F3 | E2) z!f! E3 | F2 ^F G2 =F | F2 A,!ff! (A,C)F | A2 C (CF)A | (c6 | %52
w: hith- * er come,|hith- * er come;|* Who|loves to lie with|me, Come hith- * er|come, come hith- * er|come,|
 B3)"^rit" B3 | !fermata!A6 :| %54
w: * Oh|come!|
V:3
!mp! A>AA A2 B | d2 c =B2 _B |!<(! (A>G)F!<)!!>(! (d>c)B!>)! | A2 c =B2 B | c3- c2 c | %5
w: 1.Un- der the green- wood|tree who loves, who|loves * to lie * with|me, and tune his|mer- * ry|
"^cresc" c2 (c (c)=B)c |!sfz! (f3!>(! e2) d!>)! | c2 =B A2 A |!>(! (c2 e)!>)! f3 | %9
w: note un- to * the|sweet * bird's|throat, un- to the|sweet * bird's|
 e2!p! .c .c.c.c | c2 d d2 d | c2 z z2 z | z2!mf! d (=B>A)B | c2 z!f! ccc | c2 c (_ed)c | d3 ddd | %16
w: throat, Come hith- er come|hith- er, hith- er|come,|come hith- * er,|come. Here shall he|see no en- * e-|my, here shall he|
 d2 g (gf)e"^sempre" | d2!f! d (de)f | f3- f2 f | e2 A (Ac)e |!>(! (e3 d3)!>)! | c2 z z2 z | z6 | %23
w: see no en- * e-|my, no en- * e-|my * but|win- ter and * rough|wea- *|ther;||
 z6 | z6 | z6 |!mp! d6-"^(2.)  Who" |"^doth         am      -""^cresc" d6- | %28
w: |||come||
"^bi       -       tion" d6- |"^shun" d3- d2!f! =B | (=Bc)d (GA)B | c3 (=Bc)B |!>(! B6-!>)! | %33
w: |* * come|hith- * er hith- * er|come, hith- * er|come|
 B3!p! ^F3"^calando" | G3 B3 |!mp! A>"^a  tempo"AA A2 B | d2 c =B2 _B | (A>G)F (d>c)B | %38
w: * come|hith- er;|Un- der the green- wood|tree who loves, who|loves * to lie * with|
 A2 c =B2 B | c3- c2 c | c2 c c2"^cresc" c | (B>c)d d2 d | (c>d)e e2 e |!f! d2 d (=B>c)d | %44
w: me, and tune his|mer- * ry|note, and tune his|mer- * ry note un-|to * the sweet bird's|throat, come hith- * er,|
 _d3!mp! (d>c)B | B3 (_d>c)B | B3 (_d>c)B | B2 z!f! B3 | A3 d3 | c6 | c2 c f3- | f2!ff! F (FA)c | %52
w: come, hith- * er|come, hith- * er|come, hith- * er|come; Who|loves to|lie|* with me,|* come hith- * er|
 d3"^rit" e3 | f6 :| %54
w: come, Oh|come!|
V:4
 x6 | x6 | x6 | x6 | x6 | x6 | x6 | x6 | x6 | x6 | x6 | x6 | x6 | x6 | x6 | x6 | x6 | x6 | x6 | %19
 x6 | x6 | x6 | x6 | x6 | x6 | x6 | x6 | x6 | x6 | x6 | x6 | x6 | x6 | x6 | x6 | x6 | x6 | x6 | %38
 x6 | x6 | x6 | x6 | x6 | x6 | x6 | x6 | x6 | x6 | x6 | x6 | x6 | x6 | d3 e2 c | !fermata!c6 :| %54
V:5
!mp! F,>F,F, F,2 F, | F,2 F, F,3-"^(and    loves)" | F,2 F, F,-F,F, | F,2 A, ^G,2 G, | %4
w: 2.Who doth am- bi- tion|shun, and loves|* to live i' the|sun, and seek the|
 A,2 A, E,2 E, |"^cresc" F,2 F, F,2 E, | (D,3 E,2) E, | A,2 G, ^F,2 F, |!>(! G,3-!>)! G,2 G,, | %9
w: food, the food he|eats, well pleased with|what * he|gets, well pleased with|what * he|
 C,2!p! .E, .E,.F,.G, | (F,>E,)D, G,2 G, | C,6-"^cresc" | C,6- | C,2 z!f! B,B,B, | A,2 A, G,2 G, | %15
w: gets, Come hith- er come|hith- * er, hith- er|come.||* Here shall he|see no en- e-|
 ^F,3 D,E,F, | G,2 G, A,2 A,"^sempre" | D,3!f! D,3 | D3 D,3 | E,3 E,3 |!>(! E,6!>)! | A,,2 z z2 z | %22
w: my, here shall he|see no en- e-|my but|win- ter|and rough|wea-|ther;|
 z2!mf! E, (E,F,)G, | F,2 z z2 z | z2"^dim" ^C, (C,D,)E, | D,2 z z2 z | z2!mp! =B,, (B,,C,)D, | %27
w: here shall * he|see|no en- * e-|my,|here shall * he|
"^cresc" C,2 =B,, (B,,C,)D, | C,2 =B,, (B,,C,)D, | C,2!f! =B,, (B,,C,)D, | C,6- | C,6- | %32
w: see no en- * e-|my; come hith- * er|come, come hith- * er|come||
!>(! C,6-!>)! | C,3!p! C,3"^calando" | C,3 C,3 |!mp! F,>"^a  tempo"F,F, F,2 F, | F,2 F, F,3- | %37
w: |* come|hith- er;|Un- der the green- wood|tree who loves|
 F,2 F, F,2 F, | F,2 A, ^G,2 G, | A,2 A, E,2 E, | F,2 F, (_E,"^cresc"F,)E, | D,2 F, (F,G,)F, | %42
w: * to lie with|me, and tune his|mer- ry, mer- ry|note, and tune * his|mer- ry note * un-|
 E,2 G, (G,A,)G, |!f! ^F,2 F, =F,3 |"^dim" (E,>F,)G, F,3 |!mp! (_G,>F,)E, F,3 | (_G,>F,)E, (F,3 | %47
w: to the sweet * bird's|throat, Oh come|hith- * er come,|hith- * er come,|hith- * er come;|
 G,2) z!f! C,3 | F,2 A,, B,,2 =B,, | C,6 |!ff! (CA,)F, C,3 | (CA,)F, C,3- | C,3"^rit" C,3 | F,6 :| %54
w: * Who|loves to lie with|me,|hith- * er come,|hith- * er come|* Oh|come!|
V:6
 x6 | x6 | x6 | x6 | x6 | x6 | x6 | x6 | x6 | x6 | x6 | x6 | x6 | x6 | x6 | x6 | x6 | x6 | x6 | %19
 x6 | x6 | x6 | x6 | x6 | x6 | x6 | x6 | x6 | x6 | x6 | x6 | x6 | x6 | x6 | x6 | x6 | x6 | x6 | %38
 x6 | x6 | x6 | x6 | x6 | x6 | x6 | x6 | x6 | x6 | x6 | x6 | x6 | x6 | x6 | !fermata!F,,6 :| %54

